asset/message.svg

<svg width="55" height="56" viewBox="0 0 55 56" fill="none" xmlns="http://www.w3.org/2000/svg">
<path d="M44.4286 39.6071C44.4286 39.9487 44.1272 40.25 43.7857 40.25H14.2143C13.8728 40.25 13.5714 39.9487 13.5714 39.6071V24.1786C13.9933 24.6607 14.4554 25.1027 14.9576 25.5045C17.8304 27.7143 20.7232 29.9643 23.5156 32.2946C25.0223 33.5603 26.8906 35.1071 28.9799 35.1071H29H29.0201C31.1094 35.1071 32.9777 33.5603 34.4844 32.2946C37.2768 29.9643 40.1696 27.7143 43.0424 25.5045C43.5446 25.1027 44.0067 24.6607 44.4286 24.1786V39.6071ZM44.4286 18.4933C44.4286 20.2009 42.7813 22.4308 41.4754 23.4553C38.7835 25.5647 36.0915 27.6942 33.4196 29.8237C32.3549 30.6875 30.4263 32.5357 29.0201 32.5357H29H28.9799C27.5737 32.5357 25.6451 30.6875 24.5804 29.8237C21.9085 27.6942 19.2165 25.5647 16.5246 23.4553C14.7165 22.029 13.5714 20.0402 13.5714 17.75C13.5714 17.4085 13.8728 17.1071 14.2143 17.1071H43.7857C44.5491 17.1071 44.4286 17.9911 44.4286 18.4933ZM47 17.75C47 15.9821 45.5536 14.5357 43.7857 14.5357H14.2143C12.4464 14.5357 11 15.9821 11 17.75V39.6071C11 41.375 12.4464 42.8214 14.2143 42.8214H43.7857C45.5536 42.8214 47 41.375 47 39.6071V17.75Z" fill="white"/>
</svg>

<svg width="55" height="56" fill="none" xmlns="http://www.w3.org/2000/svg"><path d="M44.429 39.607a.661.661 0 0 1-.643.643H14.214a.661.661 0 0 1-.643-.643V24.18c.422.482.884.924 1.387 1.326 2.872 2.21 5.765 4.46 8.558 6.79 1.506 1.265 3.375 2.812 5.464 2.812h.04c2.09 0 3.958-1.547 5.464-2.812 2.793-2.33 5.686-4.58 8.558-6.79.503-.402.965-.844 1.387-1.326v15.428zm0-21.114c0 1.708-1.648 3.938-2.954 4.962-2.692 2.11-5.383 4.24-8.055 6.369-1.065.863-2.994 2.712-4.4 2.712h-.04c-1.406 0-3.335-1.849-4.4-2.712-2.671-2.13-5.363-4.26-8.055-6.369-1.808-1.426-2.954-3.415-2.954-5.705 0-.341.302-.643.643-.643h29.572c.763 0 .643.884.643 1.386zM47 17.75a3.224 3.224 0 0 0-3.214-3.214H14.214A3.224 3.224 0 0 0 11 17.75v21.857a3.224 3.224 0 0 0 3.214 3.214h29.572A3.224 3.224 0 0 0 47 39.607V17.75z" fill="#fff"/></svg>
